assets/svg/search_active.svg

<svg fill="none" height="35" viewBox="0 0 35 35" width="35" xmlns="http://www.w3.org/2000/svg" xmlns:xlink="http://www.w3.org/1999/xlink"><linearGradient id="a" gradientUnits="userSpaceOnUse" x1="8" x2="8" y1="8" y2="28"><stop offset="0" stop-color="#42b8eb"/><stop offset="1" stop-color="#165fd8"/></linearGradient><path clip-rule="evenodd" d="m16.5 25c-4.6944 0-8.5-3.8056-8.5-8.5s3.8056-8.5 8.5-8.5 8.5 3.8056 8.5 8.5c0 1.9869-.6817 3.8145-1.824 5.2618l4.5311 4.5311c.3905.3905.3905 1.0237 0 1.4142s-1.0237.3905-1.4142 0l-4.5311-4.5311c-1.4473 1.1423-3.2749 1.824-5.2618 1.824zm4.6598-3.9683c-.023.0192-.0453.0396-.0669.0612s-.042.0439-.0612.0669c-1.1708 1.1388-2.7693 1.8402-4.5317 1.8402-3.5899 0-6.5-2.9101-6.5-6.5s2.9101-6.5 6.5-6.5 6.5 2.9101 6.5 6.5c0 1.7624-.7014 3.3609-1.8402 4.5317z" fill="url(#a)" fill-rule="evenodd"/></svg>

<svg width="35" height="35" viewBox="0 0 35 35" fill="none" xmlns="http://www.w3.org/2000/svg">
<defs>
<linearGradient id="paint0_linear" x1="8" y1="8" x2="8" y2="28" gradientUnits="userSpaceOnUse">
<stop stop-color="#42B8EB"/>
<stop offset="1" stop-color="#165FD8"/>
</linearGradient>
</defs>
<path fill-rule="evenodd" clip-rule="evenodd" d="M16.5 25C11.8056 25 8 21.1944 8 16.5C8 11.8056 11.8056 8 16.5 8C21.1944 8 25 11.8056 25 16.5C25 18.4869 24.3183 20.3145 23.176 21.7618L27.7071 26.2929C28.0976 26.6834 28.0976 27.3166 27.7071 27.7071C27.3166 28.0976 26.6834 28.0976 26.2929 27.7071L21.7618 23.176C20.3145 24.3183 18.4869 25 16.5 25ZM21.1598 21.0317C21.1368 21.0509 21.1145 21.0713 21.0929 21.0929C21.0713 21.1145 21.0509 21.1368 21.0317 21.1598C19.8609 22.2986 18.2624 23 16.5 23C12.9101 23 10 20.0899 10 16.5C10 12.9101 12.9101 10 16.5 10C20.0899 10 23 12.9101 23 16.5C23 18.2624 22.2986 19.8609 21.1598 21.0317Z" fill="url(#paint0_linear)"/>
<mask id="mask0" mask-type="alpha" maskUnits="userSpaceOnUse" x="8" y="8" width="20" height="20">
<path fill-rule="evenodd" clip-rule="evenodd" d="M16.5 25C11.8056 25 8 21.1944 8 16.5C8 11.8056 11.8056 8 16.5 8C21.1944 8 25 11.8056 25 16.5C25 18.4869 24.3183 20.3145 23.176 21.7618L27.7071 26.2929C28.0976 26.6834 28.0976 27.3166 27.7071 27.7071C27.3166 28.0976 26.6834 28.0976 26.2929 27.7071L21.7618 23.176C20.3145 24.3183 18.4869 25 16.5 25ZM21.1598 21.0317C21.1368 21.0509 21.1145 21.0713 21.0929 21.0929C21.0713 21.1145 21.0509 21.1368 21.0317 21.1598C19.8609 22.2986 18.2624 23 16.5 23C12.9101 23 10 20.0899 10 16.5C10 12.9101 12.9101 10 16.5 10C20.0899 10 23 12.9101 23 16.5C23 18.2624 22.2986 19.8609 21.1598 21.0317Z" fill="white"/>
</mask>
<g mask="url(#mask0)">
</g>
</svg>
